!!!ONB: MCCC : IWM0416_01 : Extracted Monophonic Melody
!!!COM: Mozart, Wolfgang Amadeus
!!!OPR: Piano Sonata No.16
!!!OMV: 1
!!!SCT: K.545
!!!ODT: 1788///
**kern
*thru
*>A
*Ipiano
*staff1
*clefG2
*k[]
*C:
*met(c)
*M4/4
*MM120
=1
2cc
4ee
4gg
=2
4.b
16cc
16dd
4cc
4r
=3
2aa
4gg
4ccc
=4
4gg
8ff
16ee
16ff
4ee
4r
=5
8a
16b
16cc
16dd
16ee
16ff
16gg
16aa
16gg
16ff
16ee
16dd
16cc
16b
16a
=6
8g
16a
16b
16cc
16dd
16ee
16ff
16gg
16ff
16ee
16dd
16cc
16b
16a
16g
=7
8f
16g
16a
16b
16cc
16dd
16ee
16ff
16ee
16dd
16cc
16b
16a
16g
16f
=8
8e
16f
16g
16a
16b
16cc
16dd
16ee
16dd
16cc
16b
16a
16g
16f
16e
=9
8d
16e
16f
16g
16a
16b
16cc#
16dd
16a
16b
16cc#
16dd
16ee
16ff
16gg
=10
16aa
16bb
16ccc
16bb
16aa
16gg
16ff
16ee
16ff
16gg
16aa
16gg
16ff
16ee
16dd
16cc
=11
8b
8gg
8ee
8cc
8dd
8gg
8ee
8cc
=12
4dd
4gg
4g
4r
=13
1r
=14
8ddd
8bb
4.gg
16aa
16bb
8aa
8gg
=15
8.gg
16ff#
4ff#
2r
=16
8ddd
8bb
4.gg
16aa
16bb
8aa
8gg
=17
8.gg
16ff#
4ff#
2r
=18
4ddd
16r
16ddd
16bb
16gg
4ee
16r
16ee
16gg
16ee
=19
4ccc
16r
16ccc
16aa
16ff#
4dd
16r
16dd
16ff#
16dd
=20
4bb
16r
16bb
16gg
16ee
4cc
16r
16cc
16ee
16cc
=21
4aa
16r
16aa
16ff#
16dd
4b
16r
16gg
16dd
16b
=22
2a
16b
8.cc
16dd#
8.ee
=23
16gg#
[8.aa
8aa]
32bb
32aa
32gg
32aa
8ccc
8aa
8ccc
8aa
=24
8bb
8gg
2ddd
16ccc
16bb
16aa
16gg
=25
1aa
=26
4gg
16gg
16dd
16gg
16bb
16ddd
16bb
16gg
16bb
16ccc
16aa
16ff#
16aa
=27
4gg
16g
16d
16g
16b
16dd
16b
16g
16b
16cc
16a
16f#
16a
=28
4g
4bb
4gg
4r
=29
*>A
*Ipiano
*staff1
*M4/4
2cc
4ee
4gg
=30
4.b
16cc
16dd
4cc
4r
=31
2aa
4gg
4ccc
=32
4gg
8ff
16ee
16ff
4ee
4r
=33
8a
16b
16cc
16dd
16ee
16ff
16gg
16aa
16gg
16ff
16ee
16dd
16cc
16b
16a
=34
8g
16a
16b
16cc
16dd
16ee
16ff
16gg
16ff
16ee
16dd
16cc
16b
16a
16g
=35
8f
16g
16a
16b
16cc
16dd
16ee
16ff
16ee
16dd
16cc
16b
16a
16g
16f
=36
8e
16f
16g
16a
16b
16cc
16dd
16ee
16dd
16cc
16b
16a
16g
16f
16e
=37
8d
16e
16f
16g
16a
16b
16cc#
16dd
16a
16b
16cc#
16dd
16ee
16ff
16gg
=38
16aa
16bb
16ccc
16bb
16aa
16gg
16ff
16ee
16ff
16gg
16aa
16gg
16ff
16ee
16dd
16cc
=39
8b
8gg
8ee
8cc
8dd
8gg
8ee
8cc
=40
4dd
4gg
4g
4r
=41
1r
=42
8ddd
8bb
4.gg
16aa
16bb
8aa
8gg
=43
8.gg
16ff#
4ff#
2r
=44
8ddd
8bb
4.gg
16aa
16bb
8aa
8gg
=45
8.gg
16ff#
4ff#
2r
=46
4ddd
16r
16ddd
16bb
16gg
4ee
16r
16ee
16gg
16ee
=47
4ccc
16r
16ccc
16aa
16ff#
4dd
16r
16dd
16ff#
16dd
=48
4bb
16r
16bb
16gg
16ee
4cc
16r
16cc
16ee
16cc
=49
4aa
16r
16aa
16ff#
16dd
4b
16r
16gg
16dd
16b
=50
2a
16b
8.cc
16dd#
8.ee
=51
16gg#
[8.aa
8aa]
32bb
32aa
32gg
32aa
8ccc
8aa
8ccc
8aa
=52
8bb
8gg
2ddd
16ccc
16bb
16aa
16gg
=53
1aa
=54
4gg
16gg
16dd
16gg
16bb
16ddd
16bb
16gg
16bb
16ccc
16aa
16ff#
16aa
=55
4gg
16g
16d
16g
16b
16dd
16b
16g
16b
16cc
16a
16f#
16a
=56
4g
4bb
4gg
4r
=57
*>B
4g
16gg
16dd
16gg
16bb-
16ddd
16bb-
16gg
16bb-
16ccc
16aa
16ff#
16aa
=58
4gg
16g
16d
16g
16b-
16dd
16b-
16g
16b-
16cc
16a
16f#
16a
=59
4g
4r
16r
16gg
16bb-
16aa
16gg
16ff
16ee
16dd
=60
4cc#
4r
16r
16ccc#
16eee
16ddd
16ccc#
16bb-
16aa
16gg
=61
4ff
16dd
16a
16dd
16ff
16aa
16ff
16dd
16ff
16gg
16ee
16cc#
16ee
=62
4dd
16d
16A
16d
16f
16a
16f
16d
16f
16g
16e
16c#
16e
=63
16r
16d
16e
16f
16g
16a
16b
16cc#
4dd
4r
=64
16r
16b
16cc
16dd
16ee
16ff#
16gg#
16aa
4bb
4r
=65
16r
16aa
16eee
16ddd
16ccc
16bb
16aa
16gg
4ff
4r
=66
16r
16gg
16ddd
16ccc
16bb
16aa
16gg
16ff
4ee
4r
=67
16r
16ff
16ccc
16bb
16aa
16gg
16ff
16ee
4dd
4r
=68
16r
16ee
16bb
16aa
16gg#
16ff
16ee
16dd
4cc
4r
=69
16r
16b-
16dd
16cc
16b-
16a
16g
16f
16e
16f
16g
16a
16b-
16cc
16dd
16ee
=70
2ff
4aa
4ccc
=71
4.ee
16ff
16gg
4ff
4r
=72
2ddd
4ccc
4fff
=73
4ccc
8bb-
16aa
16bb-
4aa
4r
=74
8dd
16ee
16ff
16gg
16aa
16bb-
16ccc
16ddd
16ccc
16bb-
16aa
16gg
16ff
16ee
16dd
=75
8cc
16dd
16ee
16ff
16gg
16aa
16bb-
16ccc
16bb-
16aa
16gg
16ff
16ee
16dd
16cc
=76
8b-
16cc
16dd
16ee
16ff
16gg
16aa
16bb-
16aa
16gg
16ff
16ee
16dd
16cc
16b-
=77
8a
16b-
16cc
16dd
16ee
16ff
16gg
16aa
16gg
16ff
16ee
16dd
16cc
16b-
16a
=78
4aa
4r
4r
4aa
=79
4gg
4r
4r
4gg
=80
4ff
4r
4r
4ff
=81
4ee
4r
4r
4ee
=82
16dd
16d
16e
16f
16g
16a
16b
16cc#
16dd
16a
16b
16cc#
16dd
16ee
16ff
16gg
=83
16aa
16bb
16ccc
16bb
16aa
16gg
16ff
16ee
16ff
16gg
16aa
16gg
16ff
16ee
16dd
16cc
=84
8b
8gg
8ee
8cc
8dd
8gg
8ee
8cc
=85
4dd
4gg
4g
4r
=86
1r
=87
8gg
8ee
4.cc
16dd
16ee
8dd
8cc
=88
8.cc
16b
4b
2r
=89
8gg
8ee
4.cc
16dd
16ee
8dd
8cc
=90
8.cc
16b
4b
2r
=91
4gg
16r
16gg
16ee
16cc
4a
16r
16a
16cc
16a
=92
4ff
16r
16ff
16dd
16b
4g
16r
16gg
16bb
16gg
=93
4eee
16r
16eee
16ccc
16aa
4ff
16r
16ff
16aa
16ff
=94
4ddd
16r
16ddd
16bb
16gg
4ee
16r
16ccc
16gg
16ee
=95
2dd
16cc#
8.dd
16cc#
8.dd
=96
2aa
16gg#
8.aa
16gg#
8.aa
=97
8gg
16aa
16bb
16ccc
16ddd
16eee
16ddd
16ccc
16bb
16aa
16gg
16ff
16ee
16dd
16cc
=98
1dd
=99
4cc
16cc
16g
16cc
16ee
16gg
16ee
16cc
16ee
16ff
16dd
16b
16dd
=100
4cc
16c
16G
16c
16e
16g
16e
16c
16e
16f
16d
16B
16d
=101
4c
4ccc
4cc
4r
=102
*>B
4g
16gg
16dd
16gg
16bb-
16ddd
16bb-
16gg
16bb-
16ccc
16aa
16ff#
16aa
=103
4gg
16g
16d
16g
16b-
16dd
16b-
16g
16b-
16cc
16a
16f#
16a
=104
4g
4r
16r
16gg
16bb-
16aa
16gg
16ff
16ee
16dd
=105
4cc#
4r
16r
16ccc#
16eee
16ddd
16ccc#
16bb-
16aa
16gg
=106
4ff
16dd
16a
16dd
16ff
16aa
16ff
16dd
16ff
16gg
16ee
16cc#
16ee
=107
4dd
16d
16A
16d
16f
16a
16f
16d
16f
16g
16e
16c#
16e
=108
16r
16d
16e
16f
16g
16a
16b
16cc#
4dd
4r
=109
16r
16b
16cc
16dd
16ee
16ff#
16gg#
16aa
4bb
4r
=110
16r
16aa
16eee
16ddd
16ccc
16bb
16aa
16gg
4ff
4r
=111
16r
16gg
16ddd
16ccc
16bb
16aa
16gg
16ff
4ee
4r
=112
16r
16ff
16ccc
16bb
16aa
16gg
16ff
16ee
4dd
4r
=113
16r
16ee
16bb
16aa
16gg#
16ff
16ee
16dd
4cc
4r
=114
16r
16b-
16dd
16cc
16b-
16a
16g
16f
16e
16f
16g
16a
16b-
16cc
16dd
16ee
=115
2ff
4aa
4ccc
=116
4.ee
16ff
16gg
4ff
4r
=117
2ddd
4ccc
4fff
=118
4ccc
8bb-
16aa
16bb-
4aa
4r
=119
8dd
16ee
16ff
16gg
16aa
16bb-
16ccc
16ddd
16ccc
16bb-
16aa
16gg
16ff
16ee
16dd
=120
8cc
16dd
16ee
16ff
16gg
16aa
16bb-
16ccc
16bb-
16aa
16gg
16ff
16ee
16dd
16cc
=121
8b-
16cc
16dd
16ee
16ff
16gg
16aa
16bb-
16aa
16gg
16ff
16ee
16dd
16cc
16b-
=122
8a
16b-
16cc
16dd
16ee
16ff
16gg
16aa
16gg
16ff
16ee
16dd
16cc
16b-
16a
=123
4aa
4r
4r
4aa
=124
4gg
4r
4r
4gg
=125
4ff
4r
4r
4ff
=126
4ee
4r
4r
4ee
=127
16dd
16d
16e
16f
16g
16a
16b
16cc#
16dd
16a
16b
16cc#
16dd
16ee
16ff
16gg
=128
16aa
16bb
16ccc
16bb
16aa
16gg
16ff
16ee
16ff
16gg
16aa
16gg
16ff
16ee
16dd
16cc
=129
8b
8gg
8ee
8cc
8dd
8gg
8ee
8cc
=130
4dd
4gg
4g
4r
=131
1r
=132
8gg
8ee
4.cc
16dd
16ee
8dd
8cc
=133
8.cc
16b
4b
2r
=134
8gg
8ee
4.cc
16dd
16ee
8dd
8cc
=135
8.cc
16b
4b
2r
=136
4gg
16r
16gg
16ee
16cc
4a
16r
16a
16cc
16a
=137
4ff
16r
16ff
16dd
16b
4g
16r
16gg
16bb
16gg
=138
4eee
16r
16eee
16ccc
16aa
4ff
16r
16ff
16aa
16ff
=139
4ddd
16r
16ddd
16bb
16gg
4ee
16r
16ccc
16gg
16ee
=140
2dd
16cc#
8.dd
16cc#
8.dd
=141
2aa
16gg#
8.aa
16gg#
8.aa
=142
8gg
16aa
16bb
16ccc
16ddd
16eee
16ddd
16ccc
16bb
16aa
16gg
16ff
16ee
16dd
16cc
=143
1dd
=144
4cc
16cc
16g
16cc
16ee
16gg
16ee
16cc
16ee
16ff
16dd
16b
16dd
=145
4cc
16c
16G
16c
16e
16g
16e
16c
16e
16f
16d
16B
16d
=146
4c
4ccc
4cc
4r
==
*-
